teeny/outline/save.svg

<svg width="15" height="15" viewBox="0 0 15 15" fill="none" xmlns="http://www.w3.org/2000/svg">
<path d="M4.5 14.5V11.5C4.5 10.9477 4.94772 10.5 5.5 10.5H9.5C10.0523 10.5 10.5 10.9477 10.5 11.5V14.5M13.5 14.5H1.5C0.947716 14.5 0.5 14.0523 0.5 13.5V1.5C0.5 0.947716 0.947715 0.5 1.5 0.5H10.0858C10.351 0.5 10.6054 0.605357 10.7929 0.792893L14.2071 4.20711C14.3946 4.39464 14.5 4.649 14.5 4.91421V13.5C14.5 14.0523 14.0523 14.5 13.5 14.5Z" stroke="black"/>
</svg>

<svg viewBox="0 0 15 15" xmlns="http://www.w3.org/2000/svg"><path fill="none" stroke="#000" d="M4.5 14.5v-3c0-.56.44-1 1-1h4c.55 0 1 .44 1 1v3m3 0h-12c-.56 0-1-.45-1-1v-12c0-.56.44-1 1-1h8.58c.26 0 .51.1.7.29l3.41 3.41c.18.18.29.44.29.7v8.58c0 .55-.45 1-1 1Z"/></svg>
